packages/theme-chalk/src/icons/knife-fork.svg

<svg width="13px" height="12px" viewBox="0 0 13 12" version="1.1" xmlns="http://www.w3.org/2000/svg" xmlns:xlink="http://www.w3.org/1999/xlink">
    <g id="Symbols" stroke="none" stroke-width="1" fill-rule="evenodd">
        <mask id="mask-2">
            <polygon id="path-1" points="0.000182199023 0.000182577931 12.306 0.000182577931 12.306 11.813175 0.000182199023 11.813175"></polygon>
        </mask>
        <path d="M6.069225,7.419 C5.511225,7.97775 5.012475,8.478 4.513725,8.9775 C3.670725,9.8205 2.827725,10.665 1.983225,11.5065 C1.599975,11.88825 1.127475,11.91375 0.787725,11.577 C0.449475,11.24325 0.470475,10.761 0.847725,10.38225 C2.117475,9.1095 3.389475,7.839 4.662225,6.5685 C4.733475,6.49725 4.813725,6.43575 4.922475,6.342 C4.668975,6.09525 4.446225,5.86725 4.207725,5.6565 C4.154475,5.61 4.038225,5.604 3.960975,5.622 C3.510975,5.727 3.123975,5.616 2.799225,5.2965 C1.993725,4.506 1.190475,3.714 0.393975,2.9145 C-0.119025,2.39925 -0.129525,1.6755 0.354975,1.1955 C0.832725,0.7215 1.563225,0.741 2.075475,1.251 C3.316725,2.48775 4.554225,3.72825 5.790975,4.96875 C5.862225,5.04 5.910975,5.13225 5.968725,5.21175 C6.257475,4.9065 6.501975,4.64925 6.766725,4.37025 C6.720225,4.3215 6.634725,4.23225 6.550725,4.1415 C6.221475,3.7875 6.212475,3.3255 6.550725,2.9835 C7.479225,2.0445 8.415225,1.11225 9.351225,0.18075 C9.570975,-0.03825 9.815475,-0.05625 9.983475,0.117 C10.143975,0.28125 10.119225,0.54 9.909225,0.7515 C9.242475,1.42125 8.573475,2.08875 7.902975,2.754 C7.831725,2.82525 7.743975,2.87925 7.636725,2.96175 C7.872225,3.1635 8.064975,3.32775 8.275725,3.50925 C8.304225,3.48225 8.376225,3.417 8.445225,3.348 C9.100725,2.6925 9.755475,2.037 10.410975,1.38225 C10.468725,1.32375 10.524975,1.25925 10.593225,1.21575 C10.775475,1.10175 10.962225,1.0935 11.118225,1.2585 C11.265225,1.413 11.257725,1.59225 11.142225,1.7625 C11.085975,1.84425 11.010225,1.914 10.938975,1.98525 C10.233975,2.69325 9.527475,3.39975 8.834475,4.095 C9.017475,4.2825 9.192225,4.46325 9.396975,4.67325 C9.597975,4.467 9.812475,4.245 10.029975,4.026 C10.540725,3.51225 11.052975,2.9985 11.568225,2.48925 C11.644725,2.4135 11.738475,2.3115 11.829975,2.3055 C11.970225,2.2965 12.174975,2.3145 12.243225,2.40375 C12.323475,2.508 12.311475,2.70525 12.291225,2.856 C12.279225,2.93925 12.174225,3.0135 12.102975,3.08475 C11.247975,3.942 10.391475,4.79775 9.534975,5.6535 C8.984475,6.204 8.627475,6.204 8.061975,5.655 C8.029725,5.62275 7.994475,5.59425 7.970475,5.5725 C7.710225,5.835 7.455225,6.0915 7.178475,6.36975 C7.437225,6.6225 7.707975,6.88275 7.973475,7.14825 C9.057225,8.2305 10.138725,9.315 11.223975,10.3965 C11.465475,10.63725 11.568225,10.91475 11.469225,11.24625 C11.377725,11.556 11.158725,11.73975 10.845225,11.799 C10.525725,11.85975 10.279725,11.7195 10.059975,11.499 C8.790225,10.2255 7.516725,8.95575 6.247725,7.68225 C6.177975,7.61175 6.133725,7.51575 6.069225,7.419" id="Fill-1"></path>
    </g>
</svg>

<svg xmlns="http://www.w3.org/2000/svg" xmlns:xlink="http://www.w3.org/1999/xlink" width="16" height="16" viewBox="0 0 16 16">
    <g fill-rule="evenodd">
        <g transform="translate(2 2)">
            <path d="M6.07 7.419L4.513 8.977c-.843.843-1.686 1.688-2.53 2.53-.384.381-.857.407-1.196.07-.339-.334-.318-.816.06-1.195C2.118 9.11 3.389 7.84 4.662 6.57c.071-.072.152-.133.26-.227-.253-.247-.476-.475-.714-.685-.054-.047-.17-.053-.247-.035a1.18 1.18 0 0 1-1.162-.325C1.994 4.505 1.19 3.713.394 2.914c-.513-.516-.524-1.24-.039-1.72.478-.474 1.208-.454 1.72.056a1578.54 1578.54 0 0 1 3.716 3.718c.071.071.12.163.178.243l.798-.842c-.047-.048-.132-.138-.216-.229-.33-.353-.339-.816 0-1.158A493.35 493.35 0 0 1 9.35.181c.22-.22.464-.237.632-.064.161.164.136.423-.074.634-.667.67-1.336 1.338-2.006 2.003-.071.071-.159.125-.266.208l.639.547c.028-.027.1-.092.17-.161l1.965-1.966c.058-.058.114-.123.182-.166.182-.114.37-.123.525.042.147.155.14.334.024.504-.056.082-.132.152-.203.223l-2.105 2.11.563.578c.201-.206.415-.428.633-.647.51-.514 1.023-1.027 1.538-1.537.077-.075.17-.177.262-.183.14-.01.345.008.413.098.08.104.068.301.048.452-.012.083-.117.158-.188.229-.855.857-1.712 1.713-2.568 2.569-.55.55-.908.55-1.473.001-.032-.032-.068-.06-.092-.083l-.792.798c.26.252.53.513.795.778 1.084 1.082 2.166 2.167 3.251 3.248.241.241.344.519.245.85-.091.31-.31.494-.624.553-.32.06-.565-.08-.785-.3-1.27-1.274-2.543-2.543-3.812-3.817-.07-.07-.114-.166-.179-.263"/>
        </g>
    </g>
</svg>
